packages/axiom-components/src/Pictogram/svgs/3d-globe.svg

<?xml version="1.0" encoding="UTF-8"?>
<svg width="16px" height="16px" viewBox="0 0 16 16" version="1.1" xmlns="http://www.w3.org/2000/svg" xmlns:xlink="http://www.w3.org/1999/xlink">
    <!-- Generator: Sketch 46.2 (44496) - http://www.bohemiancoding.com/sketch -->
    <title>3D Globe</title>
    <desc>Created with Sketch.</desc>
    <defs></defs>
    <g id="Axiom-Icons" stroke="none" stroke-width="1" fill="none" fill-rule="evenodd">
        <g id="3D-Globe" fill="#000000">
            <path d="M12.4463,7.25 C12.3973,6.309 12.2553,5.42 12.0403,4.602 C12.4933,4.504 12.9183,4.39 13.3083,4.262 C13.9203,5.127 14.3253,6.146 14.4533,7.25 L12.4463,7.25 Z M12.0403,11.398 C12.2553,10.58 12.3973,9.691 12.4463,8.75 L14.4533,8.75 C14.3253,9.854 13.9203,10.873 13.3083,11.738 C12.9183,11.61 12.4933,11.496 12.0403,11.398 L12.0403,11.398 Z M11.5523,12.837 C11.7703,12.882 11.9773,12.928 12.1713,12.978 C11.8523,13.246 11.5073,13.484 11.1403,13.687 C11.2893,13.423 11.4253,13.136 11.5523,12.837 L11.5523,12.837 Z M4.4473,12.837 C4.5743,13.136 4.7103,13.423 4.8593,13.687 C4.4933,13.484 4.1483,13.246 3.8283,12.978 C4.0223,12.928 4.2303,12.882 4.4473,12.837 L4.4473,12.837 Z M3.5533,8.75 C3.6023,9.691 3.7453,10.58 3.9603,11.398 C3.5073,11.496 3.0813,11.61 2.6913,11.738 C2.0803,10.873 1.6743,9.854 1.5473,8.75 L3.5533,8.75 Z M3.9603,4.602 C3.7453,5.42 3.6023,6.309 3.5533,7.25 L1.5473,7.25 C1.6743,6.146 2.0803,5.127 2.6913,4.262 C3.0813,4.39 3.5073,4.504 3.9603,4.602 L3.9603,4.602 Z M4.4473,3.163 C4.2303,3.118 4.0223,3.072 3.8283,3.022 C4.1483,2.754 4.4933,2.516 4.8593,2.313 C4.7103,2.577 4.5743,2.864 4.4473,3.163 L4.4473,3.163 Z M11.1403,2.313 C11.5073,2.516 11.8523,2.754 12.1713,3.022 C11.9773,3.072 11.7703,3.118 11.5523,3.163 C11.4253,2.864 11.2893,2.577 11.1403,2.313 L11.1403,2.313 Z M8.7503,3.481 L8.7503,1.664 C9.2413,1.975 9.7153,2.572 10.1053,3.386 C9.6833,3.433 9.2313,3.464 8.7503,3.481 L8.7503,3.481 Z M8.7503,7.25 L8.7503,4.994 C9.4073,4.971 10.0403,4.919 10.6413,4.841 C10.8403,5.564 10.9763,6.376 11.0273,7.25 L8.7503,7.25 Z M8.7503,11.006 L8.7503,8.75 L11.0273,8.75 C10.9763,9.624 10.8403,10.436 10.6413,11.159 C10.0403,11.081 9.4073,11.029 8.7503,11.006 L8.7503,11.006 Z M8.7503,12.519 C9.2313,12.536 9.6833,12.567 10.1053,12.614 C9.7153,13.428 9.2413,14.025 8.7503,14.335 L8.7503,12.519 Z M7.2503,12.519 L7.2503,14.335 C6.7593,14.025 6.2843,13.428 5.8943,12.614 C6.3163,12.567 6.7683,12.536 7.2503,12.519 L7.2503,12.519 Z M7.2503,8.75 L7.2503,11.006 C6.5923,11.029 5.9603,11.081 5.3583,11.159 C5.1603,10.436 5.0243,9.624 4.9733,8.75 L7.2503,8.75 Z M7.2503,4.994 L7.2503,7.25 L4.9733,7.25 C5.0243,6.376 5.1603,5.564 5.3583,4.841 C5.9593,4.919 6.5923,4.971 7.2503,4.994 L7.2503,4.994 Z M7.2503,3.481 C6.7683,3.464 6.3163,3.433 5.8943,3.386 C6.2843,2.572 6.7593,1.975 7.2503,1.664 L7.2503,3.481 Z M8.0003,0 C3.5813,0 0.0003,3.582 0.0003,8 C0.0003,12.418 3.5813,16 8.0003,16 C12.4183,16 16.0003,12.418 16.0003,8 C16.0003,3.582 12.4183,0 8.0003,0 L8.0003,0 Z"></path>
        </g>
    </g>
</svg>

<svg height="16" viewBox="0 0 16 16" width="16" xmlns="http://www.w3.org/2000/svg"><path d="m12.4463 7.25c-.049-.941-.191-1.83-.406-2.648.453-.098.878-.212 1.268-.34.612.865 1.017 1.884 1.145 2.988zm-.406 4.148c.215-.818.357-1.707.406-2.648h2.007c-.128 1.104-.533 2.123-1.145 2.988-.39-.128-.815-.242-1.268-.34zm-.488 1.439c.218.045.425.091.619.141-.319.268-.664.506-1.031.709.149-.264.285-.551.412-.85zm-7.105 0c.127.299.263.586.412.85-.366-.203-.711-.441-1.031-.709.194-.05.402-.096.619-.141zm-.894-4.087c.049.941.192 1.83.407 2.648-.453.098-.879.212-1.269.34-.611-.865-1.017-1.884-1.144-2.988zm.407-4.148c-.215.818-.358 1.707-.407 2.648h-2.006c.127-1.104.533-2.123 1.144-2.988.39.128.816.242 1.269.34zm.487-1.439c-.217-.045-.425-.091-.619-.141.32-.268.665-.506 1.031-.709-.149.264-.285.551-.412.85zm6.693-.85c.367.203.712.441 1.031.709-.194.05-.401.096-.619.141-.127-.299-.263-.586-.412-.85zm-2.39 1.168v-1.817c.491.311.965.908 1.355 1.722-.422.047-.874.078-1.355.095zm0 3.769v-2.256c.657-.023 1.29-.075 1.891-.153.199.723.335 1.535.386 2.409zm0 3.756v-2.256h2.277c-.051.874-.187 1.686-.386 2.409-.601-.078-1.234-.13-1.891-.153zm0 1.513c.481.017.933.048 1.355.095-.39.814-.864 1.411-1.355 1.721zm-1.5 0v1.816c-.491-.31-.966-.907-1.356-1.721.422-.047.874-.078 1.356-.095zm0-3.769v2.256c-.658.023-1.29.075-1.892.153-.198-.723-.334-1.535-.385-2.409zm0-3.756v2.256h-2.277c.051-.874.187-1.686.385-2.409.601.078 1.234.13 1.892.153zm0-1.513c-.482-.017-.934-.048-1.356-.095.39-.814.865-1.411 1.356-1.722zm.75-3.481c-4.419 0-8 3.582-8 8s3.581 8 8 8c4.418 0 8-3.582 8-8s-3.582-8-8-8z" fill-rule="evenodd"/></svg>
